X:99
T:Tarantella Calabraise
R:Tarantella
Z:Bert Van Vreckem <http://flanders.blackmill.net/music/>
M:6/8
L:1/8
Q:3/8=140
K:Am
a2a|"Am"e2e a2a|e2e ede|"Dm"f2f "G7"fgf|"C"e3-e2e|\
"E7"e2d ded|"Am"d2c cdc|"E7"B^GB dcB|[1"Am"A3 a2a:|[2"Am"A3 EAB||
|:"Am"cBc "G7"dcB|"F"c2A ABc|"E7"B2B dcB|"Am"c2A EAB|\
"Am"cBc "G7"dcB|"F"c2A ABc|"E7"B2B dcB|[1"Am"A3 EAB:|[2"Am"A3 a2a||
|:"Am"e2e a2a|e2e ede|"Dm"f2f "G7"fgf|"C"e3-e2e|\
"E7"e2d ded|"Am"d2c cdc|"E7"B^GB dcB|[1"Am"A3 a2a:|[2"Am"A3 "G7"GAB||
|:"C"cBc ece|g2g gag|"Dm"f2f "G7"fgf|"C"e2e "G7"GAB|\
"C"cBc ece|g2g gag|"Dm"bag "G7"fed|[1"C"c3 "G7"GAB:|[2"C"c3|]
